X:1
T:The Rakes of Mallow
M:4/4
L:1/4
K:G
 G B G B| G Bc/2-B/2A/2-G/2| F A F A| F Ad/2-c/2B/2-A/2| G B G B| G B d3/2 d/2|\
c/2-B/2A/2-G/2F/2-G/2A/2-B/2| G2 G2| gf/2-e/2 d c| B c d2| gf/2-e/2 d c|\
 B d A2| gf/2-e/2 d c| B c d2|c/2-B/2A/2-G/2F/2-G/2A/2-B/2| G2 G2|\
